X:1
T:Farewell to Mass. Ave
R:Reel
C:Hanneke Cassel
M:C
K:D
"D"A<d d>c B>A d>e|f>d g<d "G"B2 (3Bcd|"D"A<d "G"B>G "D/F#"A>d "G"B>G
|[1"A"F>D E<C "D"D2 D>E:|2"D"F>D "C"E<=C "D"D2 a<b|:"D"a>g f>d "A/C#"e<a e>c|
"G/B" d>c B<G "D/A"F2 (3FEF| "G"G>F E>G "D/F#"(3FED A,2|"G"B,<D F<G "A"E2 E>F|
[1"D"A<d d>f "A/D"e>A e>f| g>f e<d "G"B2 (3Bcd| "D/F#"A<d "G"B>G "D/F#"A>d "G"B>G|"A"F>D E<C "D"D2 a<b:|2
"D"A<d d>f "C"e>=c e>f|g>f e<d "G"B2 B>c|"Bm"d>e "D/A"f>d "G"e>d "D/F#"B<d|"G"A>F "A"E<F "D"D4|]
